newicons/emoji_rounded_symbol_for_shou.svg

<?xml version="1.0" encoding="UTF-8" standalone="no"?>
<svg
   version="1.2"
   viewBox="0 0 48 48"
   id="svg12"
   xmlns="http://www.w3.org/2000/svg"
   xmlns:svg="http://www.w3.org/2000/svg">
  <defs
     id="defs1" />
  <path
     d="M 14.017857,24 H 33.982143 M 14.785714,20.160715 h 18.428572 m -9.214286,0 V 24"
     fill="none"
     stroke="#ffffff"
     stroke-linecap="round"
     stroke-linejoin="round"
     stroke-width="1"
     id="path1"
     style="stroke-width:1;stroke-dasharray:none" />
  <path
     d="M 12.866071,16.321429 H 35.133929 A 13.821428,13.821428 0 0 1 37.821428,24 h 3.839286 a 17.660714,17.660714 0 0 0 -1.919642,-7.678571"
     fill="none"
     stroke="#ffffff"
     stroke-linecap="round"
     stroke-linejoin="round"
     stroke-width="1"
     id="path2"
     style="stroke-width:1;stroke-dasharray:none" />
  <path
     d="M 12.866071,16.321429 A 13.821428,13.821428 0 0 0 10.178572,24 H 6.3392858 a 17.660714,17.660714 0 0 1 1.919642,-7.678571"
     fill="none"
     stroke="#ffffff"
     stroke-linecap="round"
     stroke-linejoin="round"
     stroke-width="1"
     id="path3"
     style="stroke-width:1;stroke-dasharray:none" />
  <path
     d="M 7.1071428,28.607143 H 40.892857 A 17.660714,17.660714 0 0 1 26.303571,41.660714"
     fill="none"
     stroke="#ffffff"
     stroke-linecap="round"
     stroke-linejoin="round"
     stroke-width="1"
     id="path4"
     style="stroke-width:1;stroke-dasharray:none" />
  <path
     d="M 7.1071428,28.607143 A 17.660714,17.660714 0 0 0 21.696429,41.660714"
     fill="none"
     stroke="#ffffff"
     stroke-linecap="round"
     stroke-linejoin="round"
     stroke-width="1"
     id="path5"
     style="stroke-width:1;stroke-dasharray:none" />
  <path
     d="m 13.250001,32.446428 h 21.499998 a 17.660714,17.660714 0 0 1 -8.446428,5.22143"
     fill="none"
     stroke="#ffffff"
     stroke-linecap="round"
     stroke-linejoin="round"
     stroke-width="1"
     id="path6"
     style="stroke-width:1;stroke-dasharray:none" />
  <path
     d="m 13.250001,32.446428 a 17.660714,17.660714 0 0 0 8.446428,5.22143"
     fill="none"
     stroke="#ffffff"
     stroke-linecap="round"
     stroke-linejoin="round"
     stroke-width="1"
     id="path7"
     style="stroke-width:1;stroke-dasharray:none" />
  <path
     d="m 24,28.607143 v 3.839285"
     fill="none"
     stroke="#ffffff"
     stroke-linecap="round"
     stroke-linejoin="round"
     stroke-width="1"
     id="path8"
     style="stroke-width:1;stroke-dasharray:none" />
  <path
     d="m 10.5625,12.482143 a 17.660714,17.660714 0 0 1 26.875,0"
     fill="none"
     stroke="#ffffff"
     stroke-linecap="round"
     stroke-linejoin="round"
     stroke-width="1"
     id="path9"
     style="stroke-width:1;stroke-dasharray:none" />
  <path
     d="m 16.321428,12.482143 a 13.821428,13.821428 0 0 1 15.357144,0"
     fill="none"
     stroke="#ffffff"
     stroke-linecap="round"
     stroke-linejoin="round"
     stroke-width="1"
     id="path10"
     style="stroke-width:1;stroke-dasharray:none" />
  <path
     d="M 24,6.3392863 V 12.482143"
     fill="none"
     stroke="#ffffff"
     stroke-linecap="round"
     stroke-linejoin="round"
     stroke-width="1"
     id="path11"
     style="stroke-width:1;stroke-dasharray:none" />
  <path
     d="m 2.5,24 a 21.5,21.5 0 1 0 43,0 21.5,21.5 0 1 0 -43,0"
     fill="none"
     stroke="#ffffff"
     stroke-linecap="round"
     stroke-linejoin="round"
     stroke-width="1"
     id="path12"
     style="stroke-width:1;stroke-dasharray:none" />
</svg>

<?xml version="1.0" encoding="UTF-8"?><svg id="a" xmlns="http://www.w3.org/2000/svg" viewBox="0 0 48 48"><defs><style>.n{fill:none;stroke:#fff;stroke-linecap:round;stroke-linejoin:round;}</style></defs><path id="b" class="n" d="M14.0179,24h19.9643M14.7857,20.1607h18.4286M24,20.1607v3.8393"/><path id="c" class="n" d="M12.8661,16.3214h22.2679c1.6459,2.232,2.5823,4.9074,2.6875,7.6786h3.8393c-.0507-2.6718-.7071-5.2972-1.9196-7.6786"/><path id="d" class="n" d="M12.8661,16.3214c-1.6459,2.2319-2.5823,4.9074-2.6875,7.6786h-3.8393c.0507-2.6718.7071-5.2972,1.9196-7.6786"/><path id="e" class="n" d="M7.1071,28.6071h33.7857c-1.7859,6.895-7.5389,12.0424-14.5893,13.0536"/><path id="f" class="n" d="M7.1071,28.6071c1.7859,6.895,7.5389,12.0424,14.5893,13.0536"/><path id="g" class="n" d="M13.25,32.4464h21.5c-2.2582,2.5125-5.1895,4.3246-8.4464,5.2214"/><path id="h" class="n" d="M13.25,32.4464c2.2582,2.5125,5.1895,4.3246,8.4464,5.2214"/><path id="i" class="n" d="M24,28.6071v3.8393"/><path id="j" class="n" d="M10.5625,12.4821c6.3293-7.4213,17.4763-8.3066,24.8976-1.9774.7104.6058,1.3716,1.267,1.9774,1.9774"/><path id="k" class="n" d="M16.3214,12.4821c4.648-3.1056,10.7091-3.1056,15.3571,0"/><path id="l" class="n" d="M24,6.3393v6.1429"/><path id="m" class="n" d="M2.5,24c0,11.8741,9.6259,21.5,21.5,21.5s21.5-9.6259,21.5-21.5S35.8741,2.5,24,2.5,2.5,12.1259,2.5,24"/></svg>
